X:1
T:[ID 6-93a]
T:[ID 6-93a]
T:Bezeichnung standardisiert: Blae Bl\"omken; Blae Blomken In dieser Quelle auch als: Blae Bl\"omken
T:Urheber unbekannt Datum in der hier transkribierten schriftlichen Quelle: 1776 - 1791
C:Urheber unbekannt
C:Datum in der hier transkribierten schriftlichen Quelle: 1776 - 1791
L:1/8
M:none
K:Gmin
V:1 treble 
V:1
 G>ABc | (3dcd G2 | d>cde | (3fef c2 | f2 de/f/ | g2 f2 | (3fed (3edc | d2 D2 :: g2 de/f/ | g2 d2 | %10
 (3ded (3cBc | d2 A2 | (3BAB (3cBc | d>edc | (3BAG (3AGF | G2 G,2 :| %16

